**kern	**kern	**dynam
*part1	*part1	*part1
*staff2	*staff1	*
*I"Piano	*	*
*clefF4	*clefG2	*
*k[b-e-a-]	*k[b-e-a-]	*
=1	=1	=1
8g'L	8b-'L 8ee- 8gg 8bb-	.
8e-'	8b-' 8ee- 8gg 8bb-	.
8B-'J	8b-'J 8ee- 8gg 8bb-	.
=	=	=
!	!LO:TX:b:i:t=ten.	!
4b-~	8ee-'L 8gg 8bb-	.
.	8ee-' 8gg 8bb-	.
8r	8ee-'J 8gg 8bb-	.
=	=	=
8E- 8e-	8cc'L 8gg 8aan	.
8r	8cc' 8gg 8aa	<
8r	8cc'J 8gg 8aa	.
=	=	=
8D 8d	8b-'L 8dd 8gg 8bb-	.
4r	8b-' 8dd 8gg 8bb-	.
.	8b-'J 8dd 8gg 8bb-	.
=	=	=
8DD 8D	8cc'L 8dd 8ff#X 8aan	.
8r	8cc' 8dd 8ff# 8aa	.
8r	8cc'J 8dd 8ff# 8aa	.
=	=	=
8GG'L	8b-'L 8dd 8gg 8bb-	[
8D'	8b-' 8dd 8gg 8bb-	pp
8G'J	8b-'J 8dd 8gg 8bb-	.
=	=	=
8B-'	8b-'L 8dd 8gg 8bb-	.
8r	8b-' 8dd 8gg 8bb-	.
8r	8b-'J 8dd 8gg 8bb-	.
=	=	=
*-	*-	*-
!!!system-decoration: {(s1,s2)}
